src/public/icons/gift.svg

<svg width="30" height="30" viewBox="0 0 30 30" fill="none" xmlns="http://www.w3.org/2000/svg">
<path fill-rule="evenodd" clip-rule="evenodd" d="M21.9645 7.47591H23.4885C24.6596 7.47591 25.609 8.42528 25.609 9.59639V10.6566C25.609 11.8277 24.6596 12.7771 23.4885 12.7771H6.52466C5.35355 12.7771 4.40417 11.8277 4.40417 10.6566V9.59639C4.40417 8.42528 5.35355 7.47591 6.52466 7.47591H8.04873C7.9204 7.14731 7.84996 6.78971 7.84996 6.41567C7.84996 4.80539 9.15535 3.5 10.7656 3.5C12.5463 3.5 14.1111 4.42413 15.0066 5.81895C15.9021 4.42413 17.4669 3.5 19.2476 3.5C20.8578 3.5 22.1632 4.80539 22.1632 6.41567C22.1632 6.78971 22.0928 7.14731 21.9645 7.47591ZM9.97032 7.47591H14.0452C13.598 6.09162 12.2988 5.09036 10.7656 5.09036C10.0337 5.09036 9.44033 5.68372 9.44033 6.41567C9.44033 6.8492 9.64849 7.23411 9.97032 7.47591ZM20.0429 7.47591C20.3647 7.23411 20.5729 6.8492 20.5729 6.41567C20.5729 5.68372 19.9795 5.09036 19.2476 5.09036C17.7144 5.09036 16.4152 6.09162 15.968 7.47591H20.0429Z" fill="#706B6D"/>
<path d="M23.4886 14.3675H6.52468V23.3795C6.52468 24.5506 7.47405 25.5 8.64517 25.5H21.3681C22.5392 25.5 23.4886 24.5506 23.4886 23.3795V14.3675Z" fill="#706B6D"/>
</svg>

<svg xmlns="http://www.w3.org/2000/svg" width="30" height="30" fill="none"><path fill="#706B6D" fill-rule="evenodd" d="M21.965 7.476h1.523a2.12 2.12 0 0 1 2.121 2.12v1.06a2.12 2.12 0 0 1-2.12 2.121H6.525a2.12 2.12 0 0 1-2.12-2.12v-1.06a2.12 2.12 0 0 1 2.12-2.121h1.524A2.916 2.916 0 0 1 10.766 3.5a5.03 5.03 0 0 1 4.24 2.319A5.03 5.03 0 0 1 19.249 3.5a2.916 2.916 0 0 1 2.717 3.976m-11.995 0h4.075a3.45 3.45 0 0 0-3.28-2.386 1.325 1.325 0 0 0-.795 2.386m10.073 0a1.325 1.325 0 0 0-.795-2.386 3.45 3.45 0 0 0-3.28 2.386z" clip-rule="evenodd"/><path fill="#706B6D" d="M23.489 14.368H6.525v9.012c0 1.17.949 2.12 2.12 2.12h12.723a2.12 2.12 0 0 0 2.12-2.12z"/></svg>
